**kern	**silbe	**kern	**silbe	**kern	**silbe	**harmony	**phrase	**leadinstrument	**rhyme	**harte
*ICvox	*	*ICvox	*	*ICvox	*	*M4/4	*	*	*	*M4/4
*VRlead	*	*VRharmonize	*	*VRharmonize	*	*	*	*	*	*
*Hstimme	*	*Nstimme	*	*Nstimme	*	*	*	*	*	*
*C:	*	*C:	*	*C:	*	*C:	*	*	*	*C:
*M4/4	*	*M4/4	*	*M4/4	*	*	*	*	*	*
*clefF4	*	*clefF4	*	*clefF4	*	*	*	*	*	*
r;	.	r;	.	r;	.	1r;	.	r	.	N.C.
=1	=1	=1	=1	=1	=1	=1	=1	=1	=1	=1
*>Letter>A	*>Letter>A	*>Letter>A	*>Letter>A	*>Letter>A	*>Letter>A	*>Letter>A	*>Letter>A	*>Letter>A	*>Letter>A	*>Letter>A
*>Label>Intro	*>Label>Intro	*>Label>Intro	*>Label>Intro	*>Label>Intro	*>Label>Intro	*>Label>Intro	*>Label>Intro	*>Label>Intro	*>Label>Intro	*>Label>Intro
1r	.	1r	.	1r	.	1CMM	newline	r	.	C:maj9
=2	=2	=2	=2	=2	=2	=2	=2	=2	=2	=2
1r	.	1r	.	1r	.	1CMM	.	r	.	C:maj9
=3	=3	=3	=3	=3	=3	=3	=3	=3	=3	=3
1r	.	1r	.	1r	.	1Dmm	.	r	.	D:min7/b7
=4	=4	=4	=4	=4	=4	=4	=4	=4	=4	=4
1r	.	1r	.	1r	.	1Dmm	.	r	.	D:min7/b7
=5	=5	=5	=5	=5	=5	=5	=5	=5	=5	=5
1r	.	1r	.	1r	.	1CMM	newline	r	.	C:maj9
=6	=6	=6	=6	=6	=6	=6	=6	=6	=6	=6
1r	.	1r	.	1r	.	1CMM	.	r	.	C:maj9
=7	=7	=7	=7	=7	=7	=7	=7	=7	=7	=7
1r	.	1r	.	1r	.	1Dmm	.	r	.	D:min7/b7
=8	=8	=8	=8	=8	=8	=8	=8	=8	=8	=8
1r	.	1r	.	1r	.	1Dmm	.	r	.	D:min7/b7
=9	=9	=9	=9	=9	=9	=9	=9	=9	=9	=9
*>Letter>B	*>Letter>B	*>Letter>B	*>Letter>B	*>Letter>B	*>Letter>B	*>Letter>B	*>Letter>B	*>Letter>B	*>Letter>B	*>Letter>B
*>Label>Verse	*>Label>Verse	*>Label>Verse	*>Label>Verse	*>Label>Verse	*>Label>Verse	*>Label>Verse	*>Label>Verse	*>Label>Verse	*>Label>Verse	*>Label>Verse
8d	Used	1r	.	1r	.	1CM	newline	voice	.	C:maj
8e	to	.	.	.	.	.	.	.	.	.
8d	think	.	.	.	.	.	.	.	.	.
8c	that	.	.	.	.	.	.	.	.	.
4c	life	.	.	.	.	.	.	.	.	.
8A	was	.	.	.	.	.	.	.	.	.
16.e	sweet	.	.	.	.	.	.	.	A	.
32d	_	.	.	.	.	.	.	.	.	.
=10	=10	=10	=10	=10	=10	=10	=10	=10	=10	=10
8e	_	1r	.	1r	.	1CM	.	voice	.	C:maj
8r	.	.	.	.	.	.	.	.	.	.
4r	.	.	.	.	.	.	.	.	.	.
2r	.	.	.	.	.	.	.	.	.	.
=11	=11	=11	=11	=11	=11	=11	=11	=11	=11	=11
4r	.	1r	.	1r	.	1Am	.	voice	.	A:min
8A	Used	.	.	.	.	.	.	.	.	.
8c	to	.	.	.	.	.	.	.	.	.
8c	think	.	.	.	.	.	.	.	.	.
8A	we	.	.	.	.	.	.	.	.	.
8c	were	.	.	.	.	.	.	.	.	.
[8d	so	.	.	.	.	.	.	.	.	.
=12	=12	=12	=12	=12	=12	=12	=12	=12	=12	=12
8d]	_	1r	.	1r	.	1Em	.	voice	.	E:min
8d	com-	.	.	.	.	.	.	.	.	.
16B	-plete	.	.	.	.	.	.	.	A	.
16A	_	.	.	.	.	.	.	.	.	.
8G	_	.	.	.	.	.	.	.	.	.
2r	.	.	.	.	.	.	.	.	.	.
=13	=13	=13	=13	=13	=13	=13	=13	=13	=13	=13
8r	.	1r	.	1r	.	1FM	newline	voice	.	F:maj
8~F	I	.	.	.	.	.	.	.	.	.
8A	can't	.	.	.	.	.	.	.	.	.
8c	be-	.	.	.	.	.	.	.	.	.
4c	-lieve	.	.	.	.	.	.	.	.	.
8Gq	_	.	.	.	.	.	.	.	.	.
8A	you'd	.	.	.	.	.	.	.	.	.
8G	_	.	.	.	.	.	.	.	.	.
=14	=14	=14	=14	=14	=14	=14	=14	=14	=14	=14
4r	.	1r	.	1r	.	1Dm	.	voice	.	D:min
8r	.	.	.	.	.	.	.	.	.	.
8A	you'd	.	.	.	.	.	.	.	.	.
8c	throw	.	.	.	.	.	.	.	.	.
8d	it	.	.	.	.	.	.	.	.	.
8e	a	.	.	.	.	.	.	.	.	.
8eq	_	.	.	.	.	.	.	.	.	.
8f	way	.	.	.	.	.	.	.	.	.
=15	=15	=15	=15	=15	=15	=15	=15	=15	=15	=15
4e	_	1r	.	1r	.	1CM	.	voice	.	C:maj
4r	.	.	.	.	.	.	.	.	.	.
2r	.	.	.	.	.	.	.	.	.	.
=16	=16	=16	=16	=16	=16	=16	=16	=16	=16	=16
2r	.	1r	.	1r	.	4FM	.	voice	.	F:maj/5
.	.	.	.	.	.	4CM	.	voice	.	C:maj
4r	.	.	.	.	.	4FM	.	voice	.	F:maj/5
8r	.	.	.	.	.	4CM	.	voice	.	C:maj
8dq	_	.	.	.	.	.	.	.	.	.
[8e	Used	.	.	.	.	.	.	.	.	.
=17	=17	=17	=17	=17	=17	=17	=17	=17	=17	=17
*>Letter>B	*>Letter>B	*>Letter>B	*>Letter>B	*>Letter>B	*>Letter>B	*>Letter>B	*>Letter>B	*>Letter>B	*>Letter>B	*>Letter>B
*>Label>Verse	*>Label>Verse	*>Label>Verse	*>Label>Verse	*>Label>Verse	*>Label>Verse	*>Label>Verse	*>Label>Verse	*>Label>Verse	*>Label>Verse	*>Label>Verse
8e]	_	1r	.	1r	.	1CM	newline	voice	.	C:maj
8e	to	.	.	.	.	.	.	.	.	.
8d	feel	.	.	.	.	.	.	.	.	.
8c	we	.	.	.	.	.	.	.	.	.
4c	had	.	.	.	.	.	.	.	.	.
8A	it	.	.	.	.	.	.	.	.	.
16.e	made	.	.	.	.	.	.	.	B	.
32d	_	.	.	.	.	.	.	.	.	.
=18	=18	=18	=18	=18	=18	=18	=18	=18	=18	=18
8e	_	1r	.	1r	.	1CM	.	voice	.	C:maj
8r	.	.	.	.	.	.	.	.	.	.
4r	.	.	.	.	.	.	.	.	.	.
2r	.	.	.	.	.	.	.	.	.	.
=19	=19	=19	=19	=19	=19	=19	=19	=19	=19	=19
4r	.	1r	.	1r	.	1Am	.	voice	.	A:min
8A	Used	.	.	.	.	.	.	.	.	.
8c	to	.	.	.	.	.	.	.	.	.
8c	feel	.	.	.	.	.	.	.	.	.
8c	we	.	.	.	.	.	.	.	.	.
8c	could	.	.	.	.	.	.	.	.	.
[8d	sail	.	.	.	.	.	.	.	.	.
=20	=20	=20	=20	=20	=20	=20	=20	=20	=20	=20
8d]	_	1r	.	1r	.	1Em	.	voice	.	E:min
8d	a-	.	.	.	.	.	.	.	.	.
16B	-way	.	.	.	.	.	.	.	B	.
16A	_	.	.	.	.	.	.	.	.	.
8G	_	.	.	.	.	.	.	.	.	.
2r	.	.	.	.	.	.	.	.	.	.
=21	=21	=21	=21	=21	=21	=21	=21	=21	=21	=21
8r	.	1r	.	1r	.	1FM	newline	voice	.	F:maj
8A	Can	.	.	.	.	.	.	.	.	.
8A	you	.	.	.	.	.	.	.	.	.
8c	i-	.	.	.	.	.	.	.	.	.
4c	-ma-	.	.	.	.	.	.	.	.	.
8Gq	_	.	.	.	.	.	.	.	.	.
4A	-gine	.	.	.	.	.	.	.	.	.
=22	=22	=22	=22	=22	=22	=22	=22	=22	=22	=22
4r	.	1r	.	1r	.	1Dm	.	voice	.	D:min
8r	.	.	.	.	.	.	.	.	.	.
8A	how	.	.	.	.	.	.	.	.	.
8c	I	.	.	.	.	.	.	.	.	.
8d	feel	.	.	.	.	.	.	.	.	.
8e	to	.	.	.	.	.	.	.	.	.
8eq	_	.	.	.	.	.	.	.	.	.
8f	day	.	.	.	.	.	.	.	B	.
=23	=23	=23	=23	=23	=23	=23	=23	=23	=23	=23
4e	_	1r	.	1r	.	1CM	.	voice	.	C:maj
4r	.	.	.	.	.	.	.	.	.	.
2r	.	.	.	.	.	.	.	.	.	.
=24	=24	=24	=24	=24	=24	=24	=24	=24	=24	=24
2r	.	1r	.	1r	.	4FM	.	voice	.	F:maj/5
.	.	.	.	.	.	4CM	.	voice	.	C:maj
8r	.	.	.	.	.	4FM	.	voice	.	F:maj/5
8d	Well,	.	.	.	.	.	.	.	.	.
8e	it	.	.	.	.	4CM	.	voice	.	C:maj
[8f	seems	.	.	.	.	.	.	.	.	.
=25	=25	=25	=25	=25	=25	=25	=25	=25	=25	=25
*>Letter>C	*>Letter>C	*>Letter>C	*>Letter>C	*>Letter>C	*>Letter>C	*>Letter>C	*>Letter>C	*>Letter>C	*>Letter>C	*>Letter>C
*>Label>Prechorus	*>Label>Prechorus	*>Label>Prechorus	*>Label>Prechorus	*>Label>Prechorus	*>Label>Prechorus	*>Label>Prechorus	*>Label>Prechorus	*>Label>Prechorus	*>Label>Prechorus	*>Label>Prechorus
8f]	_	1r	.	1r	.	1Dm	newline	voice	.	D:min
8f	a	.	.	.	.	.	.	.	.	.
8dq	_	.	.	.	.	.	.	.	.	.
8e	long	.	.	.	.	.	.	.	.	.
8d	_	.	.	.	.	.	.	.	.	.
4d	time	.	.	.	.	.	.	.	.	.
8c	a-	.	.	.	.	.	.	.	.	.
16d	-go	.	.	.	.	.	.	.	C	.
16c	_	.	.	.	.	.	.	.	.	.
=26	=26	=26	=26	=26	=26	=26	=26	=26	=26	=26
8A	_	1r	.	1r	.	2.Am	.	voice	.	A:min
8r	.	.	.	.	.	.	.	.	.	.
4r	.	.	.	.	.	.	.	.	.	.
8r	.	.	.	.	.	.	.	.	.	.
8B	You	.	.	.	.	.	.	.	.	.
8B	were	.	.	.	.	4Em	.	voice	.	E:min/b3
8A	the	.	.	.	.	.	.	.	.	.
=27	=27	=27	=27	=27	=27	=27	=27	=27	=27	=27
4.A	lone-	1r	.	1r	.	2FM	.	voice	.	F:maj6
8e	-ly	.	.	.	.	.	.	.	.	.
2e	one	.	.	.	.	2FM	.	voice	D	F:maj
=28	=28	=28	=28	=28	=28	=28	=28	=28	=28	=28
2r	.	1r	.	1r	.	2FM	.	voice	.	F:maj6
4r	.	.	.	.	.	2FM	.	voice	.	F:maj
8r	.	.	.	.	.	.	.	.	.	.
8e	Now	.	.	.	.	.	.	.	.	.
=29	=29	=29	=29	=29	=29	=29	=29	=29	=29	=29
8f	_	1r	.	1r	.	1Dm	newline	voice	.	D:min
8f	it	.	.	.	.	.	.	.	.	.
8e	comes	.	.	.	.	.	.	.	.	.
8d	to	.	.	.	.	.	.	.	.	.
8d	let-	.	.	.	.	.	.	.	.	.
[8c	-ting	.	.	.	.	.	.	.	.	.
8c]	_	.	.	.	.	.	.	.	.	.
8d	go	.	.	.	.	.	.	.	C	.
=30	=30	=30	=30	=30	=30	=30	=30	=30	=30	=30
16c	_	1r	.	1r	.	2.Am	.	voice	.	A:min
8A	_	.	.	.	.	.	.	.	.	.
16r	.	.	.	.	.	.	.	.	.	.
4r	.	.	.	.	.	.	.	.	.	.
8r	.	.	.	.	.	.	.	.	.	.
8B	You	.	.	.	.	.	.	.	.	.
8B	are	.	.	.	.	4Em	.	voice	.	E:min/b3
8A	the	.	.	.	.	.	.	.	.	.
=31	=31	=31	=31	=31	=31	=31	=31	=31	=31	=31
4.A	on-	1r	.	1r	.	2FM	.	voice	.	F:maj6
8e	-ly	.	.	.	.	.	.	.	.	.
2e	one	.	.	.	.	2FM	.	voice	D	F:maj
=32	=32	=32	=32	=32	=32	=32	=32	=32	=32	=32
2r	.	1r	.	1r	.	2FM	.	voice	.	F:maj6
8r	.	.	.	.	.	2FM	.	voice	.	F:maj
8c	Do	.	.	.	.	.	.	.	.	.
8c	you	.	.	.	.	.	.	.	.	.
8A	know	.	.	.	.	.	.	.	.	.
=33	=33	=33	=33	=33	=33	=33	=33	=33	=33	=33
4.A	what	1r	.	1r	.	2GM	newline	voice	.	G:maj6
8e	you've	.	.	.	.	.	.	.	.	.
4.e	done	.	.	.	.	2GM	.	voice	D	G:maj
16f	_	.	.	.	.	.	.	.	.	.
16e	_	.	.	.	.	.	.	.	.	.
=34	=34	=34	=34	=34	=34	=34	=34	=34	=34	=34
4.d	_	1r	.	1r	.	2GM	.	voice	.	G:maj6
16e	_	.	.	.	.	.	.	.	.	.
16r	.	.	.	.	.	.	.	.	.	.
2r	.	.	.	.	.	2GM	.	voice	.	G:maj
=35	=35	=35	=35	=35	=35	=35	=35	=35	=35	=35
*>Letter>A	*>Letter>A	*>Letter>A	*>Letter>A	*>Letter>A	*>Letter>A	*>Letter>A	*>Letter>A	*>Letter>A	*>Letter>A	*>Letter>A
*>Label>Chorus	*>Label>Chorus	*>Label>Chorus	*>Label>Chorus	*>Label>Chorus	*>Label>Chorus	*>Label>Chorus	*>Label>Chorus	*>Label>Chorus	*>Label>Chorus	*>Label>Chorus
8e	It's	8G 8c	It's	1r	.	1CMM	newline	voice	.	C:maj9
4d	so	4G 4B	so	.	.	.	.	.	.	.
[8d	fun	[8G [8B	fun	.	.	.	.	.	.	.
8d]	_	8G] 8B]	_	.	.	.	.	.	.	.
4e	ny	4G 4c	ny	.	.	.	.	.	.	.
8r	.	8r	.	.	.	.	.	.	.	.
=36	=36	=36	=36	=36	=36	=36	=36	=36	=36	=36
4r	.	4r	.	1r	.	1CMM	.	voice	.	C:maj9
8d	how	8G 8B	how	.	.	.	.	.	.	.
[8e	we	[8G [8c	we	.	.	.	.	.	.	.
8e]	_	8G] 8c]	_	.	.	.	.	.	.	.
4d	don't	4G 4B	don't	.	.	.	.	.	.	.
[8f	talk	[8A [8d	talk	.	.	.	.	.	.	.
=37	=37	=37	=37	=37	=37	=37	=37	=37	=37	=37
4.f]	_	4.A] 4.d]	_	1r	.	1Dmm	.	voice	.	D:min7/b7
16e	a-	16A 16c	a-	.	.	.	.	.	.	.
16d	-ny-	16G 16B	-ny-	.	.	.	.	.	.	.
4.c	-more	4.F 4.A	-more	.	.	.	.	.	.	.
8r	.	8r	.	.	.	.	.	.	.	.
=38	=38	=38	=38	=38	=38	=38	=38	=38	=38	=38
1r	.	1r	.	1r	.	1Dmm	.	voice	.	D:min7/b7
=39	=39	=39	=39	=39	=39	=39	=39	=39	=39	=39
8e	It's	8G 8c	It's	1r	.	1CMM	newline	voice	.	C:maj9
4d	so	4G 4B	so	.	.	.	.	.	.	.
[8d	fun	[8G [8B	fun	.	.	.	.	.	.	.
8d]	_	8G] 8B]	_	.	.	.	.	.	.	.
4e	ny	4G 4c	ny	.	.	.	.	.	.	.
8r	.	8r	.	.	.	.	.	.	.	.
=40	=40	=40	=40	=40	=40	=40	=40	=40	=40	=40
4r	.	4r	.	1r	.	1CMM	.	voice	.	C:maj9
8d	why	8G 8B	why	.	.	.	.	.	.	.
[8e	we	[8G [8c	we	.	.	.	.	.	.	.
8e]	_	8G] 8c]	_	.	.	.	.	.	.	.
4d	don't	4G 4B	don't	.	.	.	.	.	.	.
[8f	talk	8A [8d	talk	.	.	.	.	.	.	.
=41	=41	=41	=41	=41	=41	=41	=41	=41	=41	=41
4.f]	_	4.A 4.d]	_	1r	.	1Dmm	.	voice	.	D:min7/b7
16f	a-	16A 16d	a-	.	.	.	.	.	.	.
16g	-ny-	16c 16e	-ny-	.	.	.	.	.	.	.
4.f	-more	4.A 4.c	-more	.	.	.	.	.	.	.
8r	.	8r	.	.	.	.	.	.	.	.
=42	=42	=42	=42	=42	=42	=42	=42	=42	=42	=42
4r	.	1r	.	1r	.	1Dmm	.	voice	.	D:min7/b7
8r	.	.	.	.	.	.	.	.	.	.
16c	But	.	.	.	.	.	.	.	.	.
16c	I	.	.	.	.	.	.	.	.	.
8a	ain't	.	.	.	.	.	.	.	.	.
8g	lo-	.	.	.	.	.	.	.	.	.
8g	-sin'	.	.	.	.	.	.	.	.	.
8g	sleep	.	.	.	.	.	.	.	E	.
=43	=43	=43	=43	=43	=43	=43	=43	=43	=43	=43
*>Letter>A2	*>Letter>A2	*>Letter>A2	*>Letter>A2	*>Letter>A2	*>Letter>A2	*>Letter>A2	*>Letter>A2	*>Letter>A2	*>Letter>A2	*>Letter>A2
*>Label>Bridge	*>Label>Bridge	*>Label>Bridge	*>Label>Bridge	*>Label>Bridge	*>Label>Bridge	*>Label>Bridge	*>Label>Bridge	*>Label>Bridge	*>Label>Bridge	*>Label>Bridge
8dq	_	.	.	.	.	.	.	.	.	.
4.e	_	1r	.	1r	.	2CM	newline	voice	.	C:maj
8r	.	.	.	.	.	.	.	.	.	.
2r	.	.	.	.	.	2CMm	.	voice	.	C:11
=44	=44	=44	=44	=44	=44	=44	=44	=44	=44	=44
4r	.	1r	.	1r	.	4FMm	.	voice	.	F:11
8r	.	.	.	.	.	2.FM	.	voice	.	F:maj
16e	And	.	.	.	.	.	.	.	.	.
16e	I	.	.	.	.	.	.	.	.	.
8f	ain't	.	.	.	.	.	.	.	.	.
8f	coun-	.	.	.	.	.	.	.	.	.
8f	-tin'	.	.	.	.	.	.	.	.	.
8g	sheep	.	.	.	.	.	.	.	E	.
=45	=45	=45	=45	=45	=45	=45	=45	=45	=45	=45
8d#q	_	.	.	.	.	.	.	.	.	.
8e	_	1r	.	1r	.	2.GMm	.	voice	.	G:11
8d#q	_	.	.	.	.	.	.	.	.	.
8e	_	.	.	.	.	.	.	.	.	.
4r	.	.	.	.	.	.	.	.	.	.
2r	.	.	.	.	.	.	.	.	.	.
.	.	.	.	.	.	4GM	.	voice	.	G:maj
=46	=46	=46	=46	=46	=46	=46	=46	=46	=46	=46
1r	.	1r	.	1r	.	1AMm	.	voice	.	A:11
=47	=47	=47	=47	=47	=47	=47	=47	=47	=47	=47
*A:	*	*A:	*	*A:	*	*A:	*	*	*	*A:
1r	.	8e 8a 8cc#	It's	1r	.	1AMM	newline	voice	.	A:maj9
.	.	4e 4g# 4b	so	.	.	.	.	.	.	.
.	.	[8e [8g# [8b	fun	.	.	.	.	.	.	.
.	.	8e] 8g#] 8b]	_	.	.	.	.	.	.	.
.	.	4e 4a 4cc#	ny	.	.	.	.	.	.	.
.	.	8r	.	.	.	.	.	.	.	.
=48	=48	=48	=48	=48	=48	=48	=48	=48	=48	=48
1r	.	4r	.	1r	.	1AMM	.	voice	.	A:maj9
.	.	8e 8g# 8b	how	.	.	.	.	.	.	.
.	.	[8e [8a [8cc#	we	.	.	.	.	.	.	.
.	.	8e] 8a] 8cc#]	_	.	.	.	.	.	.	.
.	.	4e 4g# 4b	don't	.	.	.	.	.	.	.
.	.	[8f# [8b [8dd	talk	.	.	.	.	.	.	.
=49	=49	=49	=49	=49	=49	=49	=49	=49	=49	=49
2r	.	1f#_ 1b_ 1dd_	_	1r	.	1Bm	.	voice	.	B:min/b7
8r	.	.	.	.	.	.	.	.	.	.
16a	A-	.	.	.	.	.	.	.	.	.
16a	-ny-	.	.	.	.	.	.	.	.	.
8g#	-more	.	.	.	.	.	.	.	.	.
[8f#	_	.	.	.	.	.	.	.	.	.
=50	=50	=50	=50	=50	=50	=50	=50	=50	=50	=50
4.f#]	_	2f#] 2b] 2dd]	_	1r	.	1Bm	.	voice	.	B:min/b7
8r	.	.	.	.	.	.	.	.	.	.
2r	.	2r	.	.	.	.	.	.	.	.
=51	=51	=51	=51	=51	=51	=51	=51	=51	=51	=51
*>Letter>A	*>Letter>A	*>Letter>A	*>Letter>A	*>Letter>A	*>Letter>A	*>Letter>A	*>Letter>A	*>Letter>A	*>Letter>A	*>Letter>A
*>Label>Interlude	*>Label>Interlude	*>Label>Interlude	*>Label>Interlude	*>Label>Interlude	*>Label>Interlude	*>Label>Interlude	*>Label>Interlude	*>Label>Interlude	*>Label>Interlude	*>Label>Interlude
*clefG2	*	*	*	*	*	*C:	*	*	*	*C:
4r	.	1r	.	1r	.	1CMM	newline	voice	.	C:maj9
8r	.	.	.	.	.	.	.	.	.	.
16dd	Ah,	.	.	.	.	.	.	.	.	.
[16ee	_	.	.	.	.	.	.	.	.	.
4.ee]	_	.	.	.	.	.	.	.	.	.
[8dd	_	.	.	.	.	.	.	.	.	.
=52	=52	=52	=52	=52	=52	=52	=52	=52	=52	=52
4.dd]	_	1r	.	1r	.	1CMM	.	voice	.	C:maj9
[8cc	_	.	.	.	.	.	.	.	.	.
8cc]	_	.	.	.	.	.	.	.	.	.
8cc	we	.	.	.	.	.	.	.	.	.
8ccq	_	.	.	.	.	.	.	.	.	.
[4dd	don't	.	.	.	.	.	.	.	.	.
=53	=53	=53	=53	=53	=53	=53	=53	=53	=53	=53
8dd]	_	1r	.	1r	.	1Dmm	.	voice	.	D:min7/b7
8gq	_	.	.	.	.	.	.	.	.	.
8a	talk	.	.	.	.	.	.	.	.	.
8gq	_	.	.	.	.	.	.	.	.	.
8a	_	.	.	.	.	.	.	.	.	.
8r	.	.	.	.	.	.	.	.	.	.
2r	.	.	.	.	.	.	.	.	.	.
=54	=54	=54	=54	=54	=54	=54	=54	=54	=54	=54
1r	.	1r	.	1r	.	1Dmm	.	voice	.	D:min7/b7
=55	=55	=55	=55	=55	=55	=55	=55	=55	=55	=55
2r	.	1r	.	1r	.	1CMM	newline	voice	.	C:maj9
8r	.	.	.	.	.	.	.	.	.	.
8gq	_	.	.	.	.	.	.	.	.	.
4a	Ooh	.	.	.	.	.	.	.	.	.
[8g	_	.	.	.	.	.	.	.	.	.
=56	=56	=56	=56	=56	=56	=56	=56	=56	=56	=56
4.g]	_	1r	.	1r	.	1CMM	.	voice	.	C:maj9
16e	_	.	.	.	.	.	.	.	.	.
16d	_	.	.	.	.	.	.	.	.	.
2r	.	.	.	.	.	.	.	.	.	.
=57	=57	=57	=57	=57	=57	=57	=57	=57	=57	=57
1r	.	1r	.	1r	.	1Dmm	.	voice	.	D:min7/b7
=58	=58	=58	=58	=58	=58	=58	=58	=58	=58	=58
*clefF4	*	*clefG2	*	*	*	*	*	*	*	*
2r	.	1r	.	1r	.	1Dmm	.	voice	.	D:min7/b7
4r	.	.	.	.	.	.	.	.	.	.
8r	.	.	.	.	.	.	.	.	.	.
16G	Well,	.	.	.	.	.	.	.	.	.
16G	it	.	.	.	.	.	.	.	.	.
=59	=59	=59	=59	=59	=59	=59	=59	=59	=59	=59
*>Letter>B	*>Letter>B	*>Letter>B	*>Letter>B	*>Letter>B	*>Letter>B	*>Letter>B	*>Letter>B	*>Letter>B	*>Letter>B	*>Letter>B
*>Label>Verse	*>Label>Verse	*>Label>Verse	*>Label>Verse	*>Label>Verse	*>Label>Verse	*>Label>Verse	*>Label>Verse	*>Label>Verse	*>Label>Verse	*>Label>Verse
8e	real-	8g	real-	1r	.	1CM	newline	voice	.	C:maj
8e	-ly	8g	-ly	.	.	.	.	.	.	.
8d	does-	8f	does-	.	.	.	.	.	.	.
8c	-n't	8e	-n't	.	.	.	.	.	.	.
8c	mat-	8e	mat-	.	.	.	.	.	.	.
8c	-ter	8e	-ter	.	.	.	.	.	.	.
8A	to	8~c	to	.	.	.	.	.	.	.
16.e	me	16.g	me	.	.	.	.	.	E	.
32d	_	32f	_	.	.	.	.	.	.	.
=60	=60	=60	=60	=60	=60	=60	=60	=60	=60	=60
8e	_	8g	_	1r	.	1CM	.	voice	.	C:maj
8r	.	8r	.	.	.	.	.	.	.	.
4r	.	4r	.	.	.	.	.	.	.	.
2r	.	2r	.	.	.	.	.	.	.	.
=61	=61	=61	=61	=61	=61	=61	=61	=61	=61	=61
8r	.	1r	.	1r	.	1Am	.	voice	.	A:min
8~A	I	.	.	.	.	.	.	.	.	.
8c	guess	.	.	.	.	.	.	.	.	.
8c	your	.	.	.	.	.	.	.	.	.
8c	lea-	.	.	.	.	.	.	.	.	.
8A	-vin'	.	.	.	.	.	.	.	.	.
8r	.	.	.	.	.	.	.	.	.	.
8c	was	.	.	.	.	.	.	.	.	.
=62	=62	=62	=62	=62	=62	=62	=62	=62	=62	=62
8d	meant	1r	.	1r	.	1Em	.	voice	.	E:min
8d	to	.	.	.	.	.	.	.	.	.
16B	be	.	.	.	.	.	.	.	E	.
16A	_	.	.	.	.	.	.	.	.	.
8G	_	.	.	.	.	.	.	.	.	.
2r	.	.	.	.	.	.	.	.	.	.
=63	=63	=63	=63	=63	=63	=63	=63	=63	=63	=63
8r	.	1r	.	1r	.	1FM	newline	voice	.	F:maj
8~F	It's	.	.	.	.	.	.	.	.	.
8A	down	.	.	.	.	.	.	.	.	.
8c	to	.	.	.	.	.	.	.	.	.
4c	you,	.	.	.	.	.	.	.	.	.
8Gq	_	.	.	.	.	.	.	.	.	.
8A	now	.	.	.	.	.	.	.	.	.
8r	.	.	.	.	.	.	.	.	.	.
=64	=64	=64	=64	=64	=64	=64	=64	=64	=64	=64
4r	.	2r	.	1r	.	1Dm	.	voice	.	D:min
8r	.	.	.	.	.	.	.	.	.	.
8A	you	.	.	.	.	.	.	.	.	.
8c	wan-	8e	wan-	.	.	.	.	.	.	.
8d	-na	8f	-na	.	.	.	.	.	.	.
8e	be	8g	be	.	.	.	.	.	.	.
16f	free	16a	free	.	.	.	.	.	E	.
[16e	_	[16g	_	.	.	.	.	.	.	.
=65	=65	=65	=65	=65	=65	=65	=65	=65	=65	=65
16e]	_	16g]	_	1r	.	1CM	.	voice	.	C:maj
16d	_	16f	_	.	.	.	.	.	.	.
8c	_	8e	_	.	.	.	.	.	.	.
4r	.	4r	.	.	.	.	.	.	.	.
2r	.	2r	.	.	.	.	.	.	.	.
=66	=66	=66	=66	=66	=66	=66	=66	=66	=66	=66
2r	.	1r	.	1r	.	4FM	.	voice	.	F:maj/5
.	.	.	.	.	.	4CM	.	voice	.	C:maj
8r	.	.	.	.	.	4FM	.	voice	.	F:maj/5
8d	Well,	.	.	.	.	.	.	.	.	.
8e	I	.	.	.	.	4CM	.	voice	.	C:maj
[8f	hope	.	.	.	.	.	.	.	.	.
=67	=67	=67	=67	=67	=67	=67	=67	=67	=67	=67
*>Letter>C	*>Letter>C	*>Letter>C	*>Letter>C	*>Letter>C	*>Letter>C	*>Letter>C	*>Letter>C	*>Letter>C	*>Letter>C	*>Letter>C
*>Label>Prechorus	*>Label>Prechorus	*>Label>Prechorus	*>Label>Prechorus	*>Label>Prechorus	*>Label>Prechorus	*>Label>Prechorus	*>Label>Prechorus	*>Label>Prechorus	*>Label>Prechorus	*>Label>Prechorus
8f]	_	1r	.	1r	.	1Dm	newline	voice	.	D:min
8c	you	.	.	.	.	.	.	.	.	.
8e	know	.	.	.	.	.	.	.	C	.
8d	which	.	.	.	.	.	.	.	.	.
8d	way	.	.	.	.	.	.	.	.	.
8c	_	.	.	.	.	.	.	.	.	.
8c	to	.	.	.	.	.	.	.	.	.
8d	go	.	.	.	.	.	.	.	C	.
=68	=68	=68	=68	=68	=68	=68	=68	=68	=68	=68
16c	_	1r	.	1r	.	2.Am	.	voice	.	A:min
8A	_	.	.	.	.	.	.	.	.	.
16r	.	.	.	.	.	.	.	.	.	.
4r	.	.	.	.	.	.	.	.	.	.
8r	.	.	.	.	.	.	.	.	.	.
8B	You're	.	.	.	.	.	.	.	.	.
8B	on	.	.	.	.	4Em	.	voice	.	E:min/b3
8A	your	.	.	.	.	.	.	.	.	.
=69	=69	=69	=69	=69	=69	=69	=69	=69	=69	=69
4.A	own	1r	.	1r	.	2FM	.	voice	C	F:maj6
8e	a-	.	.	.	.	.	.	.	.	.
[4e	-gain	.	.	.	.	2FM	.	voice	.	F:maj
16e]	_	.	.	.	.	.	.	.	.	.
16~f	_	.	.	.	.	.	.	.	.	.
8r	.	.	.	.	.	.	.	.	.	.
=70	=70	=70	=70	=70	=70	=70	=70	=70	=70	=70
2r	.	1r	.	1r	.	2FM	.	voice	.	F:maj6
4r	.	.	.	.	.	2FM	.	voice	.	F:maj
8r	.	.	.	.	.	.	.	.	.	.
8eq	_	.	.	.	.	.	.	.	.	.
[8f	Don't	.	.	.	.	.	.	.	.	.
=71	=71	=71	=71	=71	=71	=71	=71	=71	=71	=71
4f]	_	1r	.	1r	.	1Dm	newline	voice	.	D:min
8e	come	.	.	.	.	.	.	.	.	.
8d	n'-	.	.	.	.	.	.	.	.	.
8e	-cry-	.	.	.	.	.	.	.	.	.
8d	-in'	.	.	.	.	.	.	.	.	.
[8c	to	.	.	.	.	.	.	.	.	.
16d	me	.	.	.	.	.	.	.	.	.
16e	_	.	.	.	.	.	.	.	.	.
=72	=72	=72	=72	=72	=72	=72	=72	=72	=72	=72
2r	.	1r	.	1r	.	2.Am	.	voice	.	A:min
8r	.	.	.	.	.	.	.	.	.	.
8B	when	.	.	.	.	.	.	.	.	.
8B	you're	.	.	.	.	4Em	.	voice	.	E:min/b3
8A	the	.	.	.	.	.	.	.	.	.
=73	=73	=73	=73	=73	=73	=73	=73	=73	=73	=73
4.A	lone-	1r	.	1r	.	2FM	.	voice	.	F:maj6
8e	-ly	.	.	.	.	.	.	.	.	.
2e	one	.	.	.	.	2FM	.	voice	D	F:maj
=74	=74	=74	=74	=74	=74	=74	=74	=74	=74	=74
2r	.	1r	.	1r	.	2FM	.	voice	.	F:maj6
8r	.	.	.	.	.	2FM	.	voice	.	F:maj
8c]	Re-	.	.	.	.	.	.	.	.	.
8c	-mem-	.	.	.	.	.	.	.	.	.
8A	-ber	.	.	.	.	.	.	.	.	.
=75	=75	=75	=75	=75	=75	=75	=75	=75	=75	=75
4.A	what	1r	.	1r	.	2GM	newline	voice	.	G:maj6
8e	you've	.	.	.	.	.	.	.	.	.
4.e	done	.	.	.	.	2GM	.	voice	D	G:maj
16f	_	.	.	.	.	.	.	.	.	.
16e	_	.	.	.	.	.	.	.	.	.
=76	=76	=76	=76	=76	=76	=76	=76	=76	=76	=76
4.d	_	1r	.	1r	.	2GM	.	voice	.	G:maj6
16~e	_	.	.	.	.	.	.	.	.	.
16r	.	.	.	.	.	.	.	.	.	.
8r	.	.	.	.	.	2GM	.	voice	.	G:maj
8dq	_	.	.	.	.	.	.	.	.	.
4e	Oh	.	.	.	.	.	.	.	.	.
8r	.	.	.	.	.	.	.	.	.	.
=77	=77	=77	=77	=77	=77	=77	=77	=77	=77	=77
*>Letter>A	*>Letter>A	*>Letter>A	*>Letter>A	*>Letter>A	*>Letter>A	*>Letter>A	*>Letter>A	*>Letter>A	*>Letter>A	*>Letter>A
*>Label>Chorus	*>Label>Chorus	*>Label>Chorus	*>Label>Chorus	*>Label>Chorus	*>Label>Chorus	*>Label>Chorus	*>Label>Chorus	*>Label>Chorus	*>Label>Chorus	*>Label>Chorus
8e	It's	8G 8c	It's	1r	.	1CMM	newline	voice	.	C:maj9
4d	so	4G 4B	so	.	.	.	.	.	.	.
[8d	fun	[8G [8B	fun	.	.	.	.	.	.	.
8d]	_	8G] 8B]	_	.	.	.	.	.	.	.
4e	ny	4G 4c	ny	.	.	.	.	.	.	.
8r	.	8r	.	.	.	.	.	.	.	.
=78	=78	=78	=78	=78	=78	=78	=78	=78	=78	=78
4r	.	4r	.	1r	.	1CMM	.	voice	.	C:maj9
8d	how	8G 8B	how	.	.	.	.	.	.	.
[8e	we	[8G [8c	we	.	.	.	.	.	.	.
8e]	_	8G] 8c]	_	.	.	.	.	.	.	.
4d	don't	4G 4B	don't	.	.	.	.	.	.	.
[8f	talk	[8A [8d	talk	.	.	.	.	.	.	.
=79	=79	=79	=79	=79	=79	=79	=79	=79	=79	=79
4.f]	_	4.A] 4.d]	_	1r	.	1Dmm	.	voice	.	D:min7/b7
16e	a-	16A 16c	a-	.	.	.	.	.	.	.
16d	-ny-	16G 16B	-ny-	.	.	.	.	.	.	.
4.c	-more	4.F 4.A	-more	.	.	.	.	.	.	.
8r	.	8r	.	.	.	.	.	.	.	.
=80	=80	=80	=80	=80	=80	=80	=80	=80	=80	=80
1r	.	1r	.	1r	.	1Dmm	.	voice	.	D:min7/b7
=81	=81	=81	=81	=81	=81	=81	=81	=81	=81	=81
8e	It's	8G 8c	It's	1r	.	1CMM	newline	voice	.	C:maj9
4d	so	4G 4B	so	.	.	.	.	.	.	.
[8d	fun	[8G [8B	fun	.	.	.	.	.	.	.
8d]	_	8G] 8B]	_	.	.	.	.	.	.	.
4e	ny	4G 4c	ny	.	.	.	.	.	.	.
8r	.	8r	.	.	.	.	.	.	.	.
=82	=82	=82	=82	=82	=82	=82	=82	=82	=82	=82
4r	.	4r	.	1r	.	1CMM	.	voice	.	C:maj9
8d	why	8G 8B	why	.	.	.	.	.	.	.
[8e	we	[8G [8c	we	.	.	.	.	.	.	.
8e]	_	8G] 8c]	_	.	.	.	.	.	.	.
4d	don't	4G 4B	don't	.	.	.	.	.	.	.
[8f	talk	8A [8d	talk	.	.	.	.	.	.	.
=83	=83	=83	=83	=83	=83	=83	=83	=83	=83	=83
4.f]	_	4.A 4.d]	_	1r	.	1Dmm	.	voice	.	D:min7/b7
16f	a-	16A 16d	a-	.	.	.	.	.	.	.
16g	-ny-	16c 16e	-ny-	.	.	.	.	.	.	.
4.f	-more	4.A 4.c	-more	.	.	.	.	.	.	.
8r	.	8r	.	.	.	.	.	.	.	.
=84	=84	=84	=84	=84	=84	=84	=84	=84	=84	=84
4r	.	1r	.	1r	.	1Dmm	.	voice	.	D:min7/b7
8r	.	.	.	.	.	.	.	.	.	.
16c	But	.	.	.	.	.	.	.	.	.
16c	I	.	.	.	.	.	.	.	.	.
8a	ain't	.	.	.	.	.	.	.	.	.
8g	lo-	.	.	.	.	.	.	.	.	.
8g	-sin'	.	.	.	.	.	.	.	.	.
8a	sleep	.	.	.	.	.	.	.	E	.
=85	=85	=85	=85	=85	=85	=85	=85	=85	=85	=85
*>Letter>A3	*>Letter>A3	*>Letter>A3	*>Letter>A3	*>Letter>A3	*>Letter>A3	*>Letter>A3	*>Letter>A3	*>Letter>A3	*>Letter>A3	*>Letter>A3
*>Label>Bridge	*>Label>Bridge	*>Label>Bridge	*>Label>Bridge	*>Label>Bridge	*>Label>Bridge	*>Label>Bridge	*>Label>Bridge	*>Label>Bridge	*>Label>Bridge	*>Label>Bridge
8fq	_	.	.	.	.	.	.	.	.	.
8g	_	1r	.	1r	.	2CM	newline	voice	.	C:maj
8r	.	.	.	.	.	.	.	.	.	.
4r	.	.	.	.	.	.	.	.	.	.
2r	.	.	.	.	.	2CMm	.	voice	.	C:11
=86	=86	=86	=86	=86	=86	=86	=86	=86	=86	=86
4r	.	1r	.	1r	.	4FMm	.	voice	.	F:11
8r	.	.	.	.	.	2.FM	.	voice	.	F:maj
16e	And	.	.	.	.	.	.	.	.	.
16e	I	.	.	.	.	.	.	.	.	.
8f	ain't	.	.	.	.	.	.	.	.	.
8f	coun-	.	.	.	.	.	.	.	.	.
8f	-tin'	.	.	.	.	.	.	.	.	.
8g	sheep	.	.	.	.	.	.	.	E	.
=87	=87	=87	=87	=87	=87	=87	=87	=87	=87	=87
8d#q	_	.	.	.	.	.	.	.	.	.
8e	_	4r	.	1r	.	2.GMm	.	voice	.	G:11
8d#q	_	.	.	.	.	.	.	.	.	.
8e	_	.	.	.	.	.	.	.	.	.
8d#q	_	.	.	.	.	.	.	.	.	.
8e	_	8r	.	.	.	.	.	.	.	.
8r	.	8c 8e	Sheep!	.	.	.	.	.	E	.
.	.	8Bq 8dq	_	.	.	.	.	.	.	.
2r	.	8c 8e	_	.	.	.	.	.	.	.
.	.	8Bq 8dq	_	.	.	.	.	.	.	.
.	.	8c 8e	_	.	.	.	.	.	.	.
.	.	8Bq 8dq	_	.	.	.	.	.	.	.
.	.	8c 8e	_	.	.	4GM	.	voice	.	G:maj
.	.	8B 8d	_	.	.	.	.	.	.	.
=88	=88	=88	=88	=88	=88	=88	=88	=88	=88	=88
8r	.	1r	.	1r	.	1AMm	.	voice	.	A:11
8d	No,	.	.	.	.	.	.	.	.	.
8d	no,	.	.	.	.	.	.	.	.	.
8e	no	.	.	.	.	.	.	.	.	.
16d	_	.	.	.	.	.	.	.	.	.
16B	_	.	.	.	.	.	.	.	.	.
8A	_	.	.	.	.	.	.	.	.	.
4r	.	.	.	.	.	.	.	.	.	.
=89	=89	=89	=89	=89	=89	=89	=89	=89	=89	=89
*A:	*	*A:	*	*A:	*	*A:	*	*	*	*A:
*	*	*clefG2	*	*	*	*	*	*	*	*
1r	.	8e 8a 8cc#	It's	1r	.	1AMM	newline	voice	.	A:maj9
.	.	4e 4g# 4b	so	.	.	.	.	.	.	.
.	.	[8e [8g# [8b	fun	.	.	.	.	.	.	.
.	.	8e] 8g#] 8b]	_	.	.	.	.	.	.	.
.	.	4e 4a 4cc#	ny	.	.	.	.	.	.	.
.	.	8r	.	.	.	.	.	.	.	.
=90	=90	=90	=90	=90	=90	=90	=90	=90	=90	=90
1r	.	4r	.	1r	.	1AMM	.	voice	.	A:maj9
.	.	8e 8g# 8b	how	.	.	.	.	.	.	.
.	.	[8e [8a [8cc#	we	.	.	.	.	.	.	.
.	.	8e] 8a] 8cc#]	_	.	.	.	.	.	.	.
.	.	4e 4g# 4b	don't	.	.	.	.	.	.	.
.	.	[8f# [8b [8dd	talk!	.	.	.	.	.	.	.
=91	=91	=91	=91	=91	=91	=91	=91	=91	=91	=91
*clefG2	*	*	*	*clefG2	*	*	*	*	*	*
2r	.	1f#_ 1b_ 1dd_	_	4.r	.	1Bm	.	voice	.	B:min/b7
.	.	.	.	16cc#	A-	.	.	.	.	.
.	.	.	.	16cc#	-ny-	.	.	.	.	.
8r	.	.	.	8b	-more!	.	.	.	.	.
16a	A-	.	.	8a	_	.	.	.	.	.
[16a	-ny	.	.	.	.	.	.	.	.	.
16a]	_	.	.	8g#	_	.	.	.	.	.
8g#	more	.	.	.	.	.	.	.	.	.
.	.	.	.	8f#	_	.	.	.	.	.
[16f#	_	.	.	.	.	.	.	.	.	.
=92	=92	=92	=92	=92	=92	=92	=92	=92	=92	=92
4.f#]	_	2f#] 2b] 2dd]	_	1r	.	1Bm	.	voice	.	B:min/b7
16e	_	.	.	.	.	.	.	.	.	.
16d	_	.	.	.	.	.	.	.	.	.
2r	.	2r	.	.	.	.	.	.	.	.
=93	=93	=93	=93	=93	=93	=93	=93	=93	=93	=93
*>Letter>A	*>Letter>A	*>Letter>A	*>Letter>A	*>Letter>A	*>Letter>A	*>Letter>A	*>Letter>A	*>Letter>A	*>Letter>A	*>Letter>A
*>Label>Interlude	*>Label>Interlude	*>Label>Interlude	*>Label>Interlude	*>Label>Interlude	*>Label>Interlude	*>Label>Interlude	*>Label>Interlude	*>Label>Interlude	*>Label>Interlude	*>Label>Interlude
*C:	*	*C:	*	*C:	*	*C:	*	*	*	*C:
4r	.	1r	.	1r	.	1CMM	newline	guitar	.	C:maj9
8r	.	.	.	.	.	.	.	.	.	.
8ddq	_	.	.	.	.	.	.	.	.	.
[8ee	Ah,	.	.	.	.	.	.	.	.	.
8ee]	_	.	.	.	.	.	.	.	.	.
[4.dd	_	.	.	.	.	.	.	.	.	.
=94	=94	=94	=94	=94	=94	=94	=94	=94	=94	=94
4dd]	_	1r	.	1r	.	1CMM	.	guitar	.	C:maj9
[4cc	_	.	.	.	.	.	.	.	.	.
8cc]	_	.	.	.	.	.	.	.	.	.
8cc	we	.	.	.	.	.	.	.	.	.
4dd	don't	.	.	.	.	.	.	.	.	.
=95	=95	=95	=95	=95	=95	=95	=95	=95	=95	=95
8gq	_	.	.	.	.	.	.	.	.	.
6a	_	1r	.	1r	.	1Dmm	.	guitar	.	D:min7/b7
8gq	_	.	.	.	.	.	.	.	.	.
6a	_	.	.	.	.	.	.	.	.	.
6r	.	.	.	.	.	.	.	.	.	.
2r	.	.	.	.	.	.	.	.	.	.
=96	=96	=96	=96	=96	=96	=96	=96	=96	=96	=96
1r	.	1r	.	1r	.	1Dmm	.	guitar	.	D:min7/b7
=97	=97	=97	=97	=97	=97	=97	=97	=97	=97	=97
4r	.	1r	.	1r	.	1CMM	newline	guitar	.	C:maj9
8r	.	.	.	.	.	.	.	.	.	.
8ee	Ah,	.	.	.	.	.	.	.	.	.
8dd	_	.	.	.	.	.	.	.	.	.
[8cc	_	.	.	.	.	.	.	.	.	.
4cc_	_	.	.	.	.	.	.	.	.	.
=98	=98	=98	=98	=98	=98	=98	=98	=98	=98	=98
16.cc]	_	1r	.	1r	.	1CMM	.	guitar	.	C:maj9
32~b	ooh	.	.	.	.	.	.	.	.	.
8dd	_	.	.	.	.	.	.	.	.	.
4r	.	.	.	.	.	.	.	.	.	.
2r	.	.	.	.	.	.	.	.	.	.
=99	=99	=99	=99	=99	=99	=99	=99	=99	=99	=99
2r	.	1r	.	1r	.	1Dmm	.	guitar	.	D:min7/b7
8r	.	.	.	.	.	.	.	.	.	.
8ee	We	.	.	.	.	.	.	.	.	.
8ee	don't	.	.	.	.	.	.	.	.	.
[8dd	talk	.	.	.	.	.	.	.	.	.
=100	=100	=100	=100	=100	=100	=100	=100	=100	=100	=100
8.dd]	_	1r	.	1r	.	1Dmm	.	guitar	.	D:min7/b7
16ee	_	.	.	.	.	.	.	.	.	.
4r	.	.	.	.	.	.	.	.	.	.
2r	.	.	.	.	.	.	.	.	.	.
=101	=101	=101	=101	=101	=101	=101	=101	=101	=101	=101
*>Letter>A3	*>Letter>A3	*>Letter>A3	*>Letter>A3	*>Letter>A3	*>Letter>A3	*>Letter>A3	*>Letter>A3	*>Letter>A3	*>Letter>A3	*>Letter>A3
*>Label>Outro	*>Label>Outro	*>Label>Outro	*>Label>Outro	*>Label>Outro	*>Label>Outro	*>Label>Outro	*>Label>Outro	*>Label>Outro	*>Label>Outro	*>Label>Outro
2r	.	1r	.	1r	.	2CM	newline	guitar	.	C:maj
8r	.	.	.	.	.	2CMm	.	guitar	.	C:11
4.ee	Ah,	.	.	.	.	.	.	.	.	.
=102	=102	=102	=102	=102	=102	=102	=102	=102	=102	=102
4.dd	_	1r	.	1r	.	4FMm	.	guitar	.	F:11
.	.	.	.	.	.	2.FM	.	guitar	.	F:maj
[8cc	_	.	.	.	.	.	.	.	.	.
8cc]	_	.	.	.	.	.	.	.	.	.
8dd	we	.	.	.	.	.	.	.	.	.
8dd	don't...	.	.	.	.	.	.	.	.	.
8r	.	.	.	.	.	.	.	.	.	.
*-	*-	*-	*-	*-	*-	*-	*-	*-	*-	*-
!!!BillboardChartDate: 1979/11/10
!!!BillboardPeak: 7
!!!BillboardWeeksOnChart: 20
!!!COC: Cliff Richard
!!!ENC: Nathaniel Condit-Schultz
!!!EST: Awating manual error checking and editing.
!!!OTL: We Don't Talk Anymore
!!!RDF**chordsym: original McGill chord annotation + (implied pitch class set, with bass pitch in first position)
!!!RDF**harmony: **recip + pitch class of root + harmonic quality
!!!RDF**leadinstrument: original McGill primary instrumentation annotation
!!!RDF**phrase: newline = linebreak in original McGill transcription
!!!RDF**timestamp: McGill audio timestamp in seconds
!!!RDT: 2017/01/12/
!!!SampleActualRank: 47
!!!SampleID#: 1273
!!!SampleTargetRank: 48
